svgs/duotone/id-badge.svg

<svg xmlns="http://www.w3.org/2000/svg" viewBox="0 0 384 512"><!-- Font Awesome Pro 6.0.0-alpha2 by @fontawesome - https://fontawesome.com License - https://fontawesome.com/license (Commercial License) --><defs><style>.fa-secondary{opacity:.4}</style></defs><path d="M336 0H48C21.49 0 0 21.492 0 48V464C0 490.508 21.49 512 48 512H336C362.51 512 384 490.508 384 464V48C384 21.492 362.51 0 336 0ZM144 64H240C248.836 64 256 71.164 256 80S248.836 96 240 96H144C135.164 96 128 88.836 128 80S135.164 64 144 64ZM192 160C227.346 160 256 188.656 256 224S227.346 288 192 288S128 259.344 128 224S156.654 160 192 160ZM288 416H96C87.164 416 80 408.836 80 400C80 355.816 115.816 320 160 320H224C268.184 320 304 355.816 304 400C304 408.836 296.836 416 288 416Z" class="fa-secondary"/><path d="M192 160C227.346 160 256 188.654 256 224S227.346 288 192 288S128 259.346 128 224S156.654 160 192 160ZM288 416H96C87.164 416 80 408.836 80 400C80 355.816 115.816 320 160 320H224C268.184 320 304 355.816 304 400C304 408.836 296.836 416 288 416Z" class="fa-primary"/></svg>

<svg xmlns="http://www.w3.org/2000/svg" viewBox="0 0 384 512"><!--! Font Awesome Pro 6.3.0 by @fontawesome - https://fontawesome.com License - https://fontawesome.com/license (Commercial License) Copyright 2023 Fonticons, Inc. --><defs><style>.fa-secondary{opacity:.4}</style></defs><path class="fa-primary" d="M192 160c35.35 0 64 28.65 64 64s-28.65 64-64 64S128 259.3 128 224S156.7 160 192 160zM288 416H96c-8.836 0-16-7.164-16-16C80 355.8 115.8 320 160 320h64c44.18 0 80 35.82 80 80C304 408.8 296.8 416 288 416z"/><path class="fa-secondary" d="M336 0h-288C21.49 0 0 21.49 0 48v416C0 490.5 21.49 512 48 512h288c26.51 0 48-21.49 48-48v-416C384 21.49 362.5 0 336 0zM144 64h96C248.8 64 256 71.16 256 80S248.8 96 240 96h-96C135.2 96 128 88.84 128 80S135.2 64 144 64zM192 160c35.35 0 64 28.66 64 64s-28.65 64-64 64S128 259.3 128 224S156.7 160 192 160zM288 416H96c-8.836 0-16-7.164-16-16C80 355.8 115.8 320 160 320h64c44.18 0 80 35.82 80 80C304 408.8 296.8 416 288 416z"/></svg>
